resources/haticons/SVG/spoon-knife.svg

<!-- Generated by IcoMoon.io -->
<svg version="1.1" xmlns="http://www.w3.org/2000/svg" width="24" height="24" viewBox="0 0 24 24">
<title>spoon-knife</title>
<path d="M5.25 0c-2.485 0-4.5 2.35-4.5 5.25 0 2.483 1.477 4.562 3.462 5.109l-0.745 12.144c-0.050 0.823 0.583 1.497 1.408 1.497h0.75c0.825 0 1.459-0.674 1.408-1.497l-0.745-12.144c1.985-0.547 3.462-2.627 3.462-5.109 0-2.899-2.015-5.25-4.5-5.25zM20.375 0l-1.25 7.5h-0.938l-0.625-7.5h-0.625l-0.625 7.5h-0.938l-1.25-7.5h-0.625v9.75c0 0.414 0.336 0.75 0.75 0.75h1.953l-0.736 12.003c-0.050 0.823 0.583 1.497 1.408 1.497h0.75c0.825 0 1.459-0.674 1.408-1.497l-0.736-12.003h1.953c0.414 0 0.75-0.336 0.75-0.75v-9.75h-0.625z"></path>
</svg>

<svg xmlns="http://www.w3.org/2000/svg" width="24" height="24"><path d="M5.25 0C2.765 0 .75 2.35.75 5.25c0 2.483 1.477 4.562 3.462 5.109l-.745 12.144A1.397 1.397 0 0 0 4.875 24h.75c.825 0 1.459-.674 1.408-1.497l-.745-12.144C8.273 9.812 9.75 7.732 9.75 5.25 9.75 2.351 7.735 0 5.25 0zm15.125 0l-1.25 7.5h-.938L17.562 0h-.625l-.625 7.5h-.938L14.124 0h-.625v9.75c0 .414.336.75.75.75h1.953l-.736 12.003A1.397 1.397 0 0 0 16.874 24h.75c.825 0 1.459-.674 1.408-1.497L18.296 10.5h1.953a.75.75 0 0 0 .75-.75V0h-.625z"/></svg>
